X:1
T:Alcatraz, 77.77.77
T:Alcatraz, 77.77.77
T:Philip Paul Bliss, 1874
T:Public Domain Courtesy of the Cyber Hymnal™
C:Philip Paul Bliss, 1874
Z:Public Domain
Z:Courtesy of the Cyber Hymnal™
%%score ( 1 2 ) ( 3 4 )
L:1/8
Q:1/4=93
M:3/4
K:Bb
V:1 treble 
V:2 treble 
V:3 bass 
V:4 bass 
V:1
 [DF]>[DF] | [Fd]3 [Fd] [Ec][DB] | ([EG]2 [GB]2) [GB][Gc] | [Fd]3 [DB] [Fd]>[Ec] | [DB]4 F>F | %5
 [Fc]3 [Fc] [FB][FA] | ([FB]2 [DF]2) F>F | [Fc]3 [Fc] [FB][Fc] | [Fd]4 [DF]>[DF] | %9
 [Fd]3 [Fd] [Ec][DB] | ([EG]2 [GB]2) [GB][Gc] | [Fd]3 [DB] [Fd]>[Ec] | [DB]4 |] %13
V:2
 x2 | x6 | x6 | x6 | x4 F>F | x6 | x4 F>F | x6 | x6 | x6 | x6 | x6 | x4 |] %13
V:3
 [B,,B,]>[B,,B,] | [B,,B,]3 [B,,B,] [F,A,][G,B,] | [G,B,]4 [E,B,][E,B,] | %3
 [F,B,]3 [F,B,] [F,A,]>[F,A,] | [B,,B,]4 [F,A,]>[F,A,] | [F,E]3 [F,E] [F,D][F,C] | %6
 (D2 B,2) [F,A,]>[F,A,] | [F,A,]3 [F,A,] [F,G,][F,A,] | B,4 [B,,B,]>[B,,B,] | %9
 [B,,B,]3 [B,,B,] [F,A,][G,B,] | [G,B,]4 [E,B,][E,B,] | [F,B,]3 [F,B,] [F,A,]>[F,A,] | [B,,B,]4 |] %13
V:4
 x2 | x6 | x6 | x6 | x6 | x6 | B,,4 x2 | x6 | B,4 x2 | x6 | x6 | x6 | x4 |] %13

